src/assets/img/instagram.svg

<svg width="30" height="30" viewBox="0 0 30 30" fill="none" xmlns="http://www.w3.org/2000/svg">
<path d="M14.9997 12.017C13.3553 12.017 12.0163 13.3553 12.0163 14.9997C12.0163 16.6447 13.3553 17.9837 14.9997 17.9837C16.6447 17.9837 17.983 16.6447 17.983 14.9997C17.983 13.3553 16.6447 12.017 14.9997 12.017ZM14.9997 12.017C13.3553 12.017 12.0163 13.3553 12.0163 14.9997C12.0163 16.6447 13.3553 17.9837 14.9997 17.9837C16.6447 17.9837 17.983 16.6447 17.983 14.9997C17.983 13.3553 16.6447 12.017 14.9997 12.017ZM19.9697 7.15292H10.0303C8.44382 7.15292 7.15292 8.44382 7.15292 10.0303V19.9697C7.15292 21.5562 8.44382 22.8471 10.0303 22.8471H19.9697C21.5562 22.8471 22.8471 21.5562 22.8471 19.9697V10.0303C22.8471 8.44382 21.5562 7.15292 19.9697 7.15292ZM14.9997 20.1665C12.1513 20.1665 9.83345 17.8487 9.83345 14.9997C9.83345 12.1513 12.1513 9.83345 14.9997 9.83345C17.8487 9.83345 20.1665 12.1513 20.1665 14.9997C20.1665 17.8487 17.8487 20.1665 14.9997 20.1665ZM20.3324 10.9018C19.6583 10.9018 19.11 10.3535 19.11 9.67941C19.11 9.00533 19.6583 8.45698 20.3324 8.45698C21.0065 8.45698 21.5549 9.00533 21.5549 9.67941C21.5549 10.3535 21.0065 10.9018 20.3324 10.9018ZM14.9997 12.017C13.3553 12.017 12.0163 13.3553 12.0163 14.9997C12.0163 16.6447 13.3553 17.9837 14.9997 17.9837C16.6447 17.9837 17.983 16.6447 17.983 14.9997C17.983 13.3553 16.6447 12.017 14.9997 12.017ZM19.9697 7.15292H10.0303C8.44382 7.15292 7.15292 8.44382 7.15292 10.0303V19.9697C7.15292 21.5562 8.44382 22.8471 10.0303 22.8471H19.9697C21.5562 22.8471 22.8471 21.5562 22.8471 19.9697V10.0303C22.8471 8.44382 21.5562 7.15292 19.9697 7.15292ZM14.9997 20.1665C12.1513 20.1665 9.83345 17.8487 9.83345 14.9997C9.83345 12.1513 12.1513 9.83345 14.9997 9.83345C17.8487 9.83345 20.1665 12.1513 20.1665 14.9997C20.1665 17.8487 17.8487 20.1665 14.9997 20.1665ZM20.3324 10.9018C19.6583 10.9018 19.11 10.3535 19.11 9.67941C19.11 9.00533 19.6583 8.45698 20.3324 8.45698C21.0065 8.45698 21.5549 9.00533 21.5549 9.67941C21.5549 10.3535 21.0065 10.9018 20.3324 10.9018ZM14.9997 12.017C13.3553 12.017 12.0163 13.3553 12.0163 14.9997C12.0163 16.6447 13.3553 17.9837 14.9997 17.9837C16.6447 17.9837 17.983 16.6447 17.983 14.9997C17.983 13.3553 16.6447 12.017 14.9997 12.017ZM0 0V30H30V0H0ZM25.03 19.9697C25.03 22.7602 22.7602 25.03 19.9697 25.03H10.0303C7.23981 25.03 4.97005 22.7602 4.97005 19.9697V10.0303C4.97005 7.23981 7.23981 4.97005 10.0303 4.97005H19.9697C22.7602 4.97005 25.03 7.23981 25.03 10.0303V19.9697ZM19.9697 7.15292H10.0303C8.44382 7.15292 7.15292 8.44382 7.15292 10.0303V19.9697C7.15292 21.5562 8.44382 22.8471 10.0303 22.8471H19.9697C21.5562 22.8471 22.8471 21.5562 22.8471 19.9697V10.0303C22.8471 8.44382 21.5562 7.15292 19.9697 7.15292ZM14.9997 20.1665C12.1513 20.1665 9.83345 17.8487 9.83345 14.9997C9.83345 12.1513 12.1513 9.83345 14.9997 9.83345C17.8487 9.83345 20.1665 12.1513 20.1665 14.9997C20.1665 17.8487 17.8487 20.1665 14.9997 20.1665ZM20.3324 10.9018C19.6583 10.9018 19.11 10.3535 19.11 9.67941C19.11 9.00533 19.6583 8.45698 20.3324 8.45698C21.0065 8.45698 21.5549 9.00533 21.5549 9.67941C21.5549 10.3535 21.0065 10.9018 20.3324 10.9018ZM14.9997 12.017C13.3553 12.017 12.0163 13.3553 12.0163 14.9997C12.0163 16.6447 13.3553 17.9837 14.9997 17.9837C16.6447 17.9837 17.983 16.6447 17.983 14.9997C17.983 13.3553 16.6447 12.017 14.9997 12.017ZM14.9997 12.017C13.3553 12.017 12.0163 13.3553 12.0163 14.9997C12.0163 16.6447 13.3553 17.9837 14.9997 17.9837C16.6447 17.9837 17.983 16.6447 17.983 14.9997C17.983 13.3553 16.6447 12.017 14.9997 12.017ZM14.9997 12.017C13.3553 12.017 12.0163 13.3553 12.0163 14.9997C12.0163 16.6447 13.3553 17.9837 14.9997 17.9837C16.6447 17.9837 17.983 16.6447 17.983 14.9997C17.983 13.3553 16.6447 12.017 14.9997 12.017ZM19.9697 7.15292H10.0303C8.44382 7.15292 7.15292 8.44382 7.15292 10.0303V19.9697C7.15292 21.5562 8.44382 22.8471 10.0303 22.8471H19.9697C21.5562 22.8471 22.8471 21.5562 22.8471 19.9697V10.0303C22.8471 8.44382 21.5562 7.15292 19.9697 7.15292ZM14.9997 20.1665C12.1513 20.1665 9.83345 17.8487 9.83345 14.9997C9.83345 12.1513 12.1513 9.83345 14.9997 9.83345C17.8487 9.83345 20.1665 12.1513 20.1665 14.9997C20.1665 17.8487 17.8487 20.1665 14.9997 20.1665ZM20.3324 10.9018C19.6583 10.9018 19.11 10.3535 19.11 9.67941C19.11 9.00533 19.6583 8.45698 20.3324 8.45698C21.0065 8.45698 21.5549 9.00533 21.5549 9.67941C21.5549 10.3535 21.0065 10.9018 20.3324 10.9018ZM14.9997 12.017C13.3553 12.017 12.0163 13.3553 12.0163 14.9997C12.0163 16.6447 13.3553 17.9837 14.9997 17.9837C16.6447 17.9837 17.983 16.6447 17.983 14.9997C17.983 13.3553 16.6447 12.017 14.9997 12.017ZM14.9997 12.017C13.3553 12.017 12.0163 13.3553 12.0163 14.9997C12.0163 16.6447 13.3553 17.9837 14.9997 17.9837C16.6447 17.9837 17.983 16.6447 17.983 14.9997C17.983 13.3553 16.6447 12.017 14.9997 12.017ZM14.9997 12.017C13.3553 12.017 12.0163 13.3553 12.0163 14.9997C12.0163 16.6447 13.3553 17.9837 14.9997 17.9837C16.6447 17.9837 17.983 16.6447 17.983 14.9997C17.983 13.3553 16.6447 12.017 14.9997 12.017ZM19.9697 7.15292H10.0303C8.44382 7.15292 7.15292 8.44382 7.15292 10.0303V19.9697C7.15292 21.5562 8.44382 22.8471 10.0303 22.8471H19.9697C21.5562 22.8471 22.8471 21.5562 22.8471 19.9697V10.0303C22.8471 8.44382 21.5562 7.15292 19.9697 7.15292ZM14.9997 20.1665C12.1513 20.1665 9.83345 17.8487 9.83345 14.9997C9.83345 12.1513 12.1513 9.83345 14.9997 9.83345C17.8487 9.83345 20.1665 12.1513 20.1665 14.9997C20.1665 17.8487 17.8487 20.1665 14.9997 20.1665ZM20.3324 10.9018C19.6583 10.9018 19.11 10.3535 19.11 9.67941C19.11 9.00533 19.6583 8.45698 20.3324 8.45698C21.0065 8.45698 21.5549 9.00533 21.5549 9.67941C21.5549 10.3535 21.0065 10.9018 20.3324 10.9018ZM14.9997 12.017C13.3553 12.017 12.0163 13.3553 12.0163 14.9997C12.0163 16.6447 13.3553 17.9837 14.9997 17.9837C16.6447 17.9837 17.983 16.6447 17.983 14.9997C17.983 13.3553 16.6447 12.017 14.9997 12.017Z" fill="#2E2E2E"/>
</svg>

<svg width="30" height="30" fill="none" xmlns="http://www.w3.org/2000/svg"><path d="M15 12.017A2.987 2.987 0 0012.016 15 2.988 2.988 0 0015 17.984 2.987 2.987 0 0017.983 15 2.987 2.987 0 0015 12.017zm0 0A2.987 2.987 0 0012.016 15 2.988 2.988 0 0015 17.984 2.987 2.987 0 0017.983 15 2.987 2.987 0 0015 12.017zm4.97-4.864h-9.94a2.88 2.88 0 00-2.877 2.877v9.94a2.88 2.88 0 002.877 2.877h9.94a2.88 2.88 0 002.877-2.877v-9.94a2.88 2.88 0 00-2.877-2.877zM15 20.167A5.173 5.173 0 019.833 15 5.172 5.172 0 0115 9.833 5.173 5.173 0 0120.166 15 5.173 5.173 0 0115 20.166zm5.332-9.265a1.224 1.224 0 01-1.222-1.223 1.223 1.223 0 111.222 1.223zM15 12.017A2.987 2.987 0 0012.016 15 2.988 2.988 0 0015 17.984 2.987 2.987 0 0017.983 15 2.987 2.987 0 0015 12.017zm4.97-4.864h-9.94a2.88 2.88 0 00-2.877 2.877v9.94a2.88 2.88 0 002.877 2.877h9.94a2.88 2.88 0 002.877-2.877v-9.94a2.88 2.88 0 00-2.877-2.877zM15 20.167A5.173 5.173 0 019.833 15 5.172 5.172 0 0115 9.833 5.173 5.173 0 0120.166 15 5.173 5.173 0 0115 20.166zm5.332-9.265a1.224 1.224 0 01-1.222-1.223 1.223 1.223 0 111.222 1.223zM15 12.017A2.987 2.987 0 0012.016 15 2.988 2.988 0 0015 17.984 2.987 2.987 0 0017.983 15 2.987 2.987 0 0015 12.017zM0 0v30h30V0H0zm25.03 19.97c0 2.79-2.27 5.06-5.06 5.06h-9.94c-2.79 0-5.06-2.27-5.06-5.06v-9.94c0-2.79 2.27-5.06 5.06-5.06h9.94c2.79 0 5.06 2.27 5.06 5.06v9.94zM19.97 7.153h-9.94a2.88 2.88 0 00-2.877 2.877v9.94a2.88 2.88 0 002.877 2.877h9.94a2.88 2.88 0 002.877-2.877v-9.94a2.88 2.88 0 00-2.877-2.877zM15 20.167A5.173 5.173 0 019.833 15 5.172 5.172 0 0115 9.833 5.173 5.173 0 0120.166 15 5.173 5.173 0 0115 20.166zm5.332-9.265a1.224 1.224 0 01-1.222-1.223 1.223 1.223 0 111.222 1.223zM15 12.017A2.987 2.987 0 0012.016 15 2.988 2.988 0 0015 17.984 2.987 2.987 0 0017.983 15 2.987 2.987 0 0015 12.017zm0 0A2.987 2.987 0 0012.016 15 2.988 2.988 0 0015 17.984 2.987 2.987 0 0017.983 15 2.987 2.987 0 0015 12.017zm0 0A2.987 2.987 0 0012.016 15 2.988 2.988 0 0015 17.984 2.987 2.987 0 0017.983 15 2.987 2.987 0 0015 12.017zm4.97-4.864h-9.94a2.88 2.88 0 00-2.877 2.877v9.94a2.88 2.88 0 002.877 2.877h9.94a2.88 2.88 0 002.877-2.877v-9.94a2.88 2.88 0 00-2.877-2.877zM15 20.167A5.173 5.173 0 019.833 15 5.172 5.172 0 0115 9.833 5.173 5.173 0 0120.166 15 5.173 5.173 0 0115 20.166zm5.332-9.265a1.224 1.224 0 01-1.222-1.223 1.223 1.223 0 111.222 1.223zM15 12.017A2.987 2.987 0 0012.016 15 2.988 2.988 0 0015 17.984 2.987 2.987 0 0017.983 15 2.987 2.987 0 0015 12.017zm0 0A2.987 2.987 0 0012.016 15 2.988 2.988 0 0015 17.984 2.987 2.987 0 0017.983 15 2.987 2.987 0 0015 12.017zm0 0A2.987 2.987 0 0012.016 15 2.988 2.988 0 0015 17.984 2.987 2.987 0 0017.983 15 2.987 2.987 0 0015 12.017zm4.97-4.864h-9.94a2.88 2.88 0 00-2.877 2.877v9.94a2.88 2.88 0 002.877 2.877h9.94a2.88 2.88 0 002.877-2.877v-9.94a2.88 2.88 0 00-2.877-2.877zM15 20.167A5.173 5.173 0 019.833 15 5.172 5.172 0 0115 9.833 5.173 5.173 0 0120.166 15 5.173 5.173 0 0115 20.166zm5.332-9.265a1.224 1.224 0 01-1.222-1.223 1.223 1.223 0 111.222 1.223zM15 12.017A2.987 2.987 0 0012.016 15 2.988 2.988 0 0015 17.984 2.987 2.987 0 0017.983 15 2.987 2.987 0 0015 12.017z" fill="#2E2E2E"/></svg>
